X:74
T: WENN ZU MEIM SCHAETZERL KOMMST
N: F0178
O: Europa, Mitteleuropa, Deutschland, Schwaben
R: Liebes - Lied, Scherz
M: 3/8
L: 1/16
K: A
 | E2A2A2 | G3FE2 | d2B2G2 | B2A2z2
E2A2A2 | G3FE2 | d2B2G2 | A4z2
B3cB2 | B3cB2 | B3cB2 | B3cB2
A2G2F2 | E2e4 | d2B2G2 | A4z2

